X: 3
T: Durangs Hornpipe (OLD WAY)
S: Lee Owens and Viola Ruth "American Square Dances of the West and Southwest"
R: reel
Z: 2010 John Chambers <jc:trillian.mit.edu>
M: 2/4
L: 1/16
K: C
|: "C"MC2E2 MC2E2 |    Ac2A GFED |     MC2E2 MC2E2 | "G7"D3D     D4     |
   "C"MC2E2 MC2E2 | "F"Ac2A GFED | "G7" eg2e  ged2 | "C"[c4E4-] [c4E4] :|
|: "C"eg2e   dccc | "F"Ac2A GFED | "G7"MF2F2 ME2E2 |     D3E     D4     |
   "C"eg2e   dccc | "F"Ac2A GFED | "G7" eg2e  ged2 | "C"[c4E4-] [c4E4] :|

%%sep 2 1 500

